src/assets/images/logo_footer.svg

<svg height="71" viewBox="0 0 159 71" width="159" xmlns="http://www.w3.org/2000/svg" xmlns:xlink="http://www.w3.org/1999/xlink"><linearGradient id="a" x1="-26.697805%" x2="105.341972%" y1="14.240398%" y2="91.297291%"><stop offset="0" stop-color="#f42525"/><stop offset="1" stop-color="#a01d1d"/></linearGradient><linearGradient id="b"><stop offset="0" stop-color="#ef4351"/><stop offset="1" stop-color="#c11414"/></linearGradient><linearGradient id="c" x1="-23.687619%" x2="99.99181%" xlink:href="#b" y1="49.991287%" y2="49.991287%"/><linearGradient id="d" x1="-.016943%" x2="99.993377%" xlink:href="#b" y1="49.987321%" y2="49.987321%"/><linearGradient id="e"><stop offset="0" stop-color="#fff"/><stop offset="1" stop-color="#fff" stop-opacity="0"/></linearGradient><linearGradient id="f" x1="46.128692%" x2="50.228539%" xlink:href="#e" y1="-199.430155%" y2="68.012629%"/><linearGradient id="g" x1="47.021154%" x2="50.175854%" xlink:href="#e" y1="-199.430155%" y2="68.012629%"/><linearGradient id="h" x1="45.017252%" x2="50.294152%" xlink:href="#e" y1="-196.878456%" y2="67.828358%"/><linearGradient id="i" x1="46.811041%" x2="50.188257%" xlink:href="#e" y1="-199.430155%" y2="68.012629%"/><linearGradient id="j" x1="46.218719%" x2="50.223225%" xlink:href="#e" y1="-199.430155%" y2="68.012629%"/><linearGradient id="k" x1="45.017252%" x2="50.294152%" xlink:href="#e" y1="-148.442136%" y2="64.330523%"/><g fill="none" fill-rule="evenodd"><g fill-rule="nonzero"><path d="m37.0904 54.2156 22.7484 16.5856-8.6052-27.0368 22.7484-15.9892h-27.6616l-9.23-27.6616-9.2016 27.6616h-27.6616l22.72 15.9892-8.6052 27.0368z" fill="url(#a)"/><path d="m38.908 55.522 13.0356-9.514-5.4528-15.5916-10.5932 22.9188z" fill="#931b1b"/><path d="m22.8052 43.6508.142.1136-8.6052 27.0368 22.7484-16.5856 14.1432-10.4512 3.1808-2.2436 19.5676-13.7456-51.12 15.904z" fill="url(#c)"/><path d="m27.8888 27.7752h-12.0132-15.6484l22.578 15.8756.0568.0284 51.12-15.904h-27.6616z" fill="url(#d)"/><path d="m27.8888 27.7752h-12.0132-15.6484l22.578 15.8756.0568.0284 51.12-15.904h-27.6616z" fill="#fff" opacity=".11"/></g><text fill="#fff" font-family="Montserrat-Bold, Montserrat" font-size="15.7288" font-weight="bold" letter-spacing="1.59039997"><tspan x="63.675356" y="52.557069">RED STAR</tspan></text><g fill-rule="nonzero" transform="translate(64.752 52.54)"><path d="m9.9684.3692-2.4708 3.55c.71.3124 1.278.7668 1.6756 1.3632s.5964 1.3064.5964 2.1016c0 .8236-.1988 1.5336-.568 2.13-.3976.5964-.9372 1.0508-1.6472 1.3916-.71.3124-1.562.4828-2.5276.4828h-4.7712v-11.0192h2.556v3.0672h2.2152.1136l2.13-3.0672zm-2.7832 7.0148c0-.5964-.1988-1.0792-.5964-1.42s-.994-.5112-1.7324-.5112h-2.0732v3.834h2.0732c.7668 0 1.3348-.1704 1.7324-.4828.3976-.3408.5964-.8236.5964-1.42z" fill="url(#f)"/><path d="m15.904 2.414v2.556h5.112v1.988h-5.112v2.3856h5.7936v2.0448h-8.3212v-11.0192h8.52v2.0448z" fill="url(#g)"/><path d="m25.5032.3692h4.9984c1.1928 0 2.2436.2272 3.1808.6816.9088.4544 1.6188 1.1076 2.13 1.9312s.7668 1.7892.7668 2.8968-.2556 2.0732-.7668 2.8968-1.2212 1.4768-2.13 1.9312-1.988.6816-3.1808.6816h-4.9984zm2.5276 2.0732v6.816h2.3288c1.1076 0 1.988-.3124 2.6412-.9088.6532-.6248.994-1.4484.994-2.4992s-.3408-1.8744-.994-2.4992-1.5336-.9088-2.6412-.9088z" fill="url(#h)"/><path d="m49.7.1704c.994 0 1.8744.142 2.556.4544.71.3124 1.2212.71 1.5904 1.2212.3408.5112.5396 1.0792.5396 1.7324 0 .7384-.1988 1.3064-.568 1.7324s-.852.7384-1.3632.9372c-.5396.1988-1.2212.3976-2.0732.5964-.7952.1704-1.42.3692-1.7892.5396-.3976.1704-.5964.4544-.5964.852 0 .3692.1704.6816.5112.9088s.8804.3408 1.5904.3408c1.0224 0 2.0448-.284 3.0388-.852l.7952 1.9312c-.5112.3124-1.0792.568-1.7608.71-.6816.1704-1.3632.2556-2.0732.2556-.994 0-1.846-.142-2.556-.4544s-1.2212-.71-1.562-1.2212-.5112-1.1076-.5112-1.7324c0-.7384.1988-1.3348.568-1.7608.3692-.4544.852-.7668 1.3632-.9656.5396-.1988 1.2212-.3976 2.0732-.5964.5396-.1136.9656-.2556 1.3064-.3408.3124-.1136.568-.2556.7952-.426.1988-.1704.3124-.3976.3124-.6532 0-.3692-.1704-.6532-.5112-.852-.3408-.2272-.8804-.3124-1.5904-.3124-.6532 0-1.3064.1136-1.9596.3124s-1.2212.4828-1.6756.8236l-.852-1.9312c.4828-.3692 1.136-.6816 1.9596-.9088.7384-.2272 1.562-.3408 2.4424-.3408z" fill="url(#i)"/><path d="m59.8104.3692h2.556v8.946h3.5216v2.0732h-9.5992v-2.0732h3.5216z" fill="url(#j)"/><path d="m76.5096.3692h2.6696l-4.9132 11.0192h-2.5276l-4.9132-11.0192h2.6128l.9656 2.3572h5.112zm-5.2824 4.2884 1.7324 4.2032 1.7324-4.2032z" fill="url(#k)"/><path d="m91.6468.3692-2.4708 3.55c.71.3124 1.278.7668 1.6756 1.3632s.5964 1.3064.5964 2.1016c0 .8236-.1988 1.5336-.568 2.13-.3976.5964-.9372 1.0508-1.6472 1.3916-.71.3124-1.562.4828-2.5276.4828h-4.7712v-11.0192h2.556v3.0672h2.2152.1136l2.13-3.0672zm-2.7832 7.0148c0-.5964-.1988-1.0792-.5964-1.42s-.994-.5112-1.7324-.5112h-2.0732v3.834h2.0732c.7668 0 1.3348-.1704 1.7324-.4828.3976-.3408.5964-.8236.5964-1.42z" fill="url(#f)"/></g></g></svg>

<?xml version="1.0" encoding="UTF-8"?>
<svg width="159px" height="71px" viewBox="0 0 159 71" version="1.1" xmlns="http://www.w3.org/2000/svg" xmlns:xlink="http://www.w3.org/1999/xlink">
    <title>logo_footer</title>
    <defs>
        <linearGradient x1="-26.6978052%" y1="14.2403983%" x2="105.341972%" y2="91.2972909%" id="linearGradient-1">
            <stop stop-color="#F42525" offset="0%"></stop>
            <stop stop-color="#A01D1D" offset="100%"></stop>
        </linearGradient>
        <linearGradient x1="-23.687619%" y1="49.9912871%" x2="99.9918095%" y2="49.9912871%" id="linearGradient-2">
            <stop stop-color="#EF4351" offset="0%"></stop>
            <stop stop-color="#C11414" offset="100%"></stop>
        </linearGradient>
        <linearGradient x1="-0.0169426261%" y1="49.9873214%" x2="99.993377%" y2="49.9873214%" id="linearGradient-3">
            <stop stop-color="#EF4351" offset="0%"></stop>
            <stop stop-color="#C11414" offset="100%"></stop>
        </linearGradient>
        <linearGradient x1="46.1286919%" y1="-199.430155%" x2="50.2285392%" y2="68.0126289%" id="linearGradient-4">
            <stop stop-color="#FFFFFF" offset="0%"></stop>
            <stop stop-color="#FFFFFF" stop-opacity="0" offset="100%"></stop>
        </linearGradient>
        <linearGradient x1="47.0211542%" y1="-199.430155%" x2="50.1758535%" y2="68.0126289%" id="linearGradient-5">
            <stop stop-color="#FFFFFF" offset="0%"></stop>
            <stop stop-color="#FFFFFF" stop-opacity="0" offset="100%"></stop>
        </linearGradient>
        <linearGradient x1="45.0172515%" y1="-196.878456%" x2="50.294152%" y2="67.8283577%" id="linearGradient-6">
            <stop stop-color="#FFFFFF" offset="0%"></stop>
            <stop stop-color="#FFFFFF" stop-opacity="0" offset="100%"></stop>
        </linearGradient>
        <linearGradient x1="46.8110409%" y1="-199.430155%" x2="50.1882573%" y2="68.0126289%" id="linearGradient-7">
            <stop stop-color="#FFFFFF" offset="0%"></stop>
            <stop stop-color="#FFFFFF" stop-opacity="0" offset="100%"></stop>
        </linearGradient>
        <linearGradient x1="46.2187193%" y1="-199.430155%" x2="50.2232245%" y2="68.0126289%" id="linearGradient-8">
            <stop stop-color="#FFFFFF" offset="0%"></stop>
            <stop stop-color="#FFFFFF" stop-opacity="0" offset="100%"></stop>
        </linearGradient>
        <linearGradient x1="45.0172515%" y1="-148.442136%" x2="50.294152%" y2="64.3305229%" id="linearGradient-9">
            <stop stop-color="#FFFFFF" offset="0%"></stop>
            <stop stop-color="#FFFFFF" stop-opacity="0" offset="100%"></stop>
        </linearGradient>
    </defs>
    <g id="Design" stroke="none" stroke-width="1" fill="none" fill-rule="evenodd">
        <g id="ГЛАВНАЯ" transform="translate(-81.000000, -6450.000000)">
            <g id="Group-54" transform="translate(1.000000, 6379.000000)">
                <g id="logo_footer" transform="translate(80.000000, 71.000000)">
                    <g id="Group" fill-rule="nonzero">
                        <g id="star-rate_7_" fill="url(#linearGradient-1)">
                            <polygon id="Path" points="37.0904 54.2156 59.8388 70.8012 51.2336 43.7644 73.982 27.7752 46.3204 27.7752 37.0904 0.1136 27.8888 27.7752 0.2272 27.7752 22.9472 43.7644 14.342 70.8012"></polygon>
                        </g>
                        <polygon id="Path" fill="#931B1B" points="38.908 55.522 51.9436 46.008 46.4908 30.4164 35.8976 53.3352"></polygon>
                        <polygon id="Path" fill="url(#linearGradient-2)" points="22.8052 43.6508 22.9472 43.7644 14.342 70.8012 37.0904 54.2156 51.2336 43.7644 54.4144 41.5208 73.982 27.7752 22.862 43.6792"></polygon>
                        <polygon id="Path" fill="url(#linearGradient-3)" points="27.8888 27.7752 15.8756 27.7752 0.2272 27.7752 22.8052 43.6508 22.862 43.6792 73.982 27.7752 46.3204 27.7752"></polygon>
                        <polygon id="Path" fill="#FFFFFF" opacity="0.11" points="27.8888 27.7752 15.8756 27.7752 0.2272 27.7752 22.8052 43.6508 22.862 43.6792 73.982 27.7752 46.3204 27.7752"></polygon>
                    </g>
                    <text id="RED-STAR" font-family="Montserrat-Bold, Montserrat" font-size="15.7288004" font-weight="bold" letter-spacing="1.59039997" fill="#FFFFFF">
                        <tspan x="63.675356" y="52.5570688">RED STAR</tspan>
                    </text>
                    <g id="Group" transform="translate(64.752000, 52.540000)" fill-rule="nonzero">
                        <path d="M9.9684,0.3692 L7.4976,3.9192 C8.2076,4.2316 8.7756,4.686 9.1732,5.2824 C9.5708,5.8788 9.7696,6.5888 9.7696,7.384 C9.7696,8.2076 9.5708,8.9176 9.2016,9.514 C8.804,10.1104 8.2644,10.5648 7.5544,10.9056 C6.8444,11.218 5.9924,11.3884 5.0268,11.3884 L0.2556,11.3884 L0.2556,0.3692 L2.8116,0.3692 L2.8116,3.4364 L5.0268,3.4364 L5.1404,3.4364 L7.2704,0.3692 L9.9684,0.3692 L9.9684,0.3692 Z M7.1852,7.384 C7.1852,6.7876 6.9864,6.3048 6.5888,5.964 C6.1912,5.6232 5.5948,5.4528 4.8564,5.4528 L2.7832,5.4528 L2.7832,9.2868 L4.8564,9.2868 C5.6232,9.2868 6.1912,9.1164 6.5888,8.804 C6.9864,8.4632 7.1852,7.9804 7.1852,7.384 Z" id="Shape" fill="url(#linearGradient-4)"></path>
                        <polygon id="Path" fill="url(#linearGradient-5)" points="15.904 2.414 15.904 4.97 21.016 4.97 21.016 6.958 15.904 6.958 15.904 9.3436 21.6976 9.3436 21.6976 11.3884 13.3764 11.3884 13.3764 0.3692 21.8964 0.3692 21.8964 2.414 15.904 2.414"></polygon>
                        <path d="M25.5032,0.3692 L30.5016,0.3692 C31.6944,0.3692 32.7452,0.5964 33.6824,1.0508 C34.5912,1.5052 35.3012,2.1584 35.8124,2.982 C36.3236,3.8056 36.5792,4.7712 36.5792,5.8788 C36.5792,6.9864 36.3236,7.952 35.8124,8.7756 C35.3012,9.5992 34.5912,10.2524 33.6824,10.7068 C32.7736,11.1612 31.6944,11.3884 30.5016,11.3884 L25.5032,11.3884 L25.5032,0.3692 Z M28.0308,2.4424 L28.0308,9.2584 L30.3596,9.2584 C31.4672,9.2584 32.3476,8.946 33.0008,8.3496 C33.654,7.7248 33.9948,6.9012 33.9948,5.8504 C33.9948,4.7996 33.654,3.976 33.0008,3.3512 C32.3476,2.7264 31.4672,2.4424 30.3596,2.4424 L28.0308,2.4424 Z" id="Shape" fill="url(#linearGradient-6)"></path>
                        <path d="M49.7,0.1704 C50.694,0.1704 51.5744,0.3124 52.256,0.6248 C52.966,0.9372 53.4772,1.3348 53.8464,1.846 C54.1872,2.3572 54.386,2.9252 54.386,3.5784 C54.386,4.3168 54.1872,4.8848 53.818,5.3108 C53.4488,5.7368 52.966,6.0492 52.4548,6.248 C51.9152,6.4468 51.2336,6.6456 50.3816,6.8444 C49.5864,7.0148 48.9616,7.2136 48.5924,7.384 C48.1948,7.5544 47.996,7.8384 47.996,8.236 C47.996,8.6052 48.1664,8.9176 48.5072,9.1448 C48.848,9.372 49.3876,9.4856 50.0976,9.4856 C51.12,9.4856 52.1424,9.2016 53.1364,8.6336 L53.9316,10.5648 C53.4204,10.8772 52.8524,11.1328 52.1708,11.2748 C51.4892,11.4452 50.8076,11.5304 50.0976,11.5304 C49.1036,11.5304 48.2516,11.3884 47.5416,11.076 C46.8316,10.7636 46.3204,10.366 45.9796,9.8548 C45.6388,9.3436 45.4684,8.7472 45.4684,8.1224 C45.4684,7.384 45.6672,6.7876 46.0364,6.3616 C46.4056,5.9072 46.8884,5.5948 47.3996,5.396 C47.9392,5.1972 48.6208,4.9984 49.4728,4.7996 C50.0124,4.686 50.4384,4.544 50.7792,4.4588 C51.0916,4.3452 51.3472,4.2032 51.5744,4.0328 C51.7732,3.8624 51.8868,3.6352 51.8868,3.3796 C51.8868,3.0104 51.7164,2.7264 51.3756,2.5276 C51.0348,2.3004 50.4952,2.2152 49.7852,2.2152 C49.132,2.2152 48.4788,2.3288 47.8256,2.5276 C47.1724,2.7264 46.6044,3.0104 46.15,3.3512 L45.298,1.42 C45.7808,1.0508 46.434,0.7384 47.2576,0.5112 C47.996,0.284 48.8196,0.1704 49.7,0.1704 Z" id="Path" fill="url(#linearGradient-7)"></path>
                        <polygon id="Path" fill="url(#linearGradient-8)" points="59.8104 0.3692 62.3664 0.3692 62.3664 9.3152 65.888 9.3152 65.888 11.3884 56.2888 11.3884 56.2888 9.3152 59.8104 9.3152 59.8104 0.3692"></polygon>
                        <path d="M76.5096,0.3692 L79.1792,0.3692 L74.266,11.3884 L71.7384,11.3884 L66.8252,0.3692 L69.438,0.3692 L70.4036,2.7264 L75.5156,2.7264 L76.5096,0.3692 Z M71.2272,4.6576 L72.9596,8.8608 L74.692,4.6576 L71.2272,4.6576 Z" id="Shape" fill="url(#linearGradient-9)"></path>
                        <path d="M91.6468,0.3692 L89.176,3.9192 C89.886,4.2316 90.454,4.686 90.8516,5.2824 C91.2492,5.8788 91.448,6.5888 91.448,7.384 C91.448,8.2076 91.2492,8.9176 90.88,9.514 C90.4824,10.1104 89.9428,10.5648 89.2328,10.9056 C88.5228,11.218 87.6708,11.3884 86.7052,11.3884 L81.934,11.3884 L81.934,0.3692 L84.49,0.3692 L84.49,3.4364 L86.7052,3.4364 L86.8188,3.4364 L88.9488,0.3692 L91.6468,0.3692 L91.6468,0.3692 Z M88.8636,7.384 C88.8636,6.7876 88.6648,6.3048 88.2672,5.964 C87.8696,5.6232 87.2732,5.4528 86.5348,5.4528 L84.4616,5.4528 L84.4616,9.2868 L86.5348,9.2868 C87.3016,9.2868 87.8696,9.1164 88.2672,8.804 C88.6648,8.4632 88.8636,7.9804 88.8636,7.384 Z" id="Shape" fill="url(#linearGradient-4)"></path>
                    </g>
                </g>
            </g>
        </g>
    </g>
</svg>
